X:55
T:Effects of Love - Fone
%%VWML:SBG-1-2-688-0
F:http://www.vwml.org/record/SBG/1/2/688
Z:Original Sibelius transcriptions by M. & S. Graebe
M:3/4
I:linebreak $
K:G
V:1 treble nm="P1"
V:1
 D2 | G F G2 G2 | D2 FE D2 D2 | G F G2 (3DEF65/64 | F G A2 D2 |$ F A c2 D2 | GB d3 G | cA D2 AG | %8
 c B/A/ G4 | %9

